X:1
T:We’ll Gather There in Glory
T:We’ll Gather There in Glory
T:James McGranahan
T:Daniel Webster Whittle, 1881
T:Public Domain Courtesy of the Cyber Hymnal™
T:Public Domain Courtesy of the Cyber Hymnal™
C:James McGranahan
Z:Public Domain
Z:Courtesy of the Cyber Hymnal™
%%score ( 1 2 ) ( 3 4 )
L:1/8
Q:1/4=85
M:4/4
K:C
V:1 treble 
V:2 treble 
V:3 bass 
V:4 bass 
V:1
 [EG] | [Ec][Fc][Ec][^Dc] [Ec]2 [GB][FA] | [EG]>[FA] [EG][CE] [EG]3 [EG] | %3
w: 1.~The|word of God is giv- en To|all who serve Him here, That|
w: 2.~Once|in our sin we wan- dered Far,|far a- way from God, And|
w: 3.~Now|with this hope to cheer us, And|with the Spir- it’s seal, That|
 [FA][FA][FA][FA] [Ac]2 [GB][FA] | [EG][Gc] [FB]>[Ec] [Gd]3 [FG] | %5
w: when the Lord from Hea- ven In|glo- ry shall ap- pear, We|
w: pre- cious hours we squan- dered, Up-|on the down- ward road; But|
w: all our sins were par- doned, Thro’|Him whose stripes did heal; As|
 [Ec][Fc][Ec][^Dc] [Ec]2 [GB][FA] | [EG]>[FA] [EG][CE] [EG]3 [EG] | %7
w: then shall be de- liv- ered From|sor- row, sin, and pain; And|
w: God in grace hath called us, And|giv- en us to share The|
w: “strang- ers” and as “pil- grims,” No|place on earth we own, But|
 [FA][FA][^Fc][Fc] [GB] [Gd]2 [Ec] | [FB][FB] [FA]>[FB] !fermata![Ec]2 ||"^Refrain" [CE][DF] | %10
w: if for Christ we suf- fer, With|Him we then shall reign.||
w: pur- chase of our Sav- ior, A|man- sion bright and fair.|We are|
w: work and watch as “ser- vants,” Un-|til our Lord shall come.||
 [EG]<[EG] [EG]>[EG] [EG]2 [Ec]2 | [FA]<[FA] [FA]>[FA] [FA]2 [Fc]2 | %12
w: ||
w: go- ing home to Je- sus,|Go- ing home to Je- sus!|
w: ||
 [DB][DB][DB][DB] [FB][FB][FA][FB] | [Ec]>[Fd] [Ec][FA] [EG]2 [CE][DF] | %14
w: ||
w: Go- ing to the man- sions He’s pre-|par- ing there on high! We are|
w: ||
 [EG]<[EG] [EG]>[EG] [EG]2 [Ec]2 | [FA]<[FA] [FA]>[FA] [FA][Fc][Ec][Fd] | %16
w: ||
w: go- ing home to Je- sus,|Go- ing home to Je- sus! And we’ll|
w: ||
 [Ge][Ge][Fd][Ec] [Fd][Fd][Ec][DB] | c6- z2 c x |] %18
w: ||
w: ga- ther there in glo- ry, By and|by! *|
w: ||
V:2
 x | x8 | x8 | x8 | x8 | x8 | x8 | x8 | x6 || x2 | x8 | x8 | x8 | x8 | x8 | x8 | x8 | %17
 E2 E>F E3 x3 |] %18
V:3
 [C,C] | [C,G,][C,A,][C,G,][C,^F,] [C,G,]2 [C,C][C,C] | [C,C]>[C,C] [C,C][C,G,] [C,C]3 [C,C] | %3
 [F,C][F,C][F,C][F,C] [F,C]2 [F,C][F,C] | [C,C][E,C] [D,G,]>[C,G,] [G,,B,]3 [B,,G,] | %5
 [C,G,][C,A,][C,G,][C,^F,] [C,G,]2 [C,C][C,C] | [C,C]>[C,C] [C,C][C,G,] [C,C]3 [C,C] | %7
 [F,C][F,C][D,D][D,D] [G,D] [G,B,]2 G, | [G,,G,][G,,G,] [G,,G,]>[G,,G,] !fermata![C,G,]2 || %9
 [C,G,][C,G,] | [C,C]<[C,C] [C,C]>[C,C] [C,C]2 [C,C]2 | [F,C]<[F,C] [F,C]>[F,C] [F,C]2 [F,A,]2 | %12
 G,G,G,G, [G,,G,][G,,G,][G,,G,][G,,G,] | [C,G,]>[C,G,] [C,G,][C,C] [C,C]2 [C,G,][C,G,] | %14
 [C,C]<[C,C] [C,C]>[C,C] [C,C]2 [C,C]2 | [F,C]<[F,C] [F,C]>[F,C] [F,C][F,A,]G,[G,B,] | %16
 CC[G,B,][A,C] [F,A,][F,A,]G,G, | G,2 G,>A, z2 x4 |] %18
V:4
 x | x8 | x8 | x8 | x8 | x8 | x8 | x7 G, | x6 || x2 | x8 | x8 | G,G,G,G, x4 | x8 | x8 | x6 G, x | %16
 CC x3 G,G, x | C,6- G,3 C, |] %18

